X: 17088
T: Hector The Hero
R: waltz
M: 3/4
K: Dmajor
DE|F3 ED2|B3 AF2|A6-|A4 DE|F3 ED2|B3 AF2|E6-|E4 DE|
F3 ED2|B3 AF2|A3 DE2|F d3 B2|A3 DF2|E4 D2|D6-|D4:|
FA|B3 cB2|d3 cB2|A6-|A4 FA|B3 AF2|A3 DF2|E6-|E4 FA|
B3 cB2|d3 cB2|A3 DE2|F d3 B2|A3 DF2|E4 D2|D6-|D4:|

